X: 23140
T: Lazy Sunday Morning
R: reel
M: 4/4
K: Amajor
ceef A2 Bc|dBcA BAFA|ceef A2 Bc|dBcA B2 AB|
ceef A2 Bc|dBcA BAFA|c2 ec BAFA|EFAB A2 AB:|
AFEF A2 AB|AFEc d2 cB|AFEF ABBA|ceBc A2 AB|
AFEF A2 AB|AFEc d2 cB|ceef BAFA|EFAB A2 A2:|

